!!!!SEGMENT: pl-wn--mus-2041-11_zelenski-wladyslaw--dzikie-sny.krn
!!!cenid: 18xx:3645
!!!COM: Żeleński, Władysław
!!!COM-rismID:
!!!CDT:
!!!CNT:
!!!OTL: Dzikie sny
!!!PDT:
!!!AGN:
!!!SMS-siglum: PL-Wn
!!!SMS-shelfmark: Mus.2041/11
!!!SMS-shelfwork: W
!!!SMS-variant:
!!!SMS-altvar:
!!!NIFC-rismSourceID:
!!!NIFC-islandoraID:
!!!URL-pdf-islandora:
!!!URL-scan: https://polona.pl/item/dzikie-sny,NjU5MjI0NzA/5/#info:metadata @EN{Scan on Polona} @PL{Skany w portalu Polona}
!!!ONB-nifc:
!!!OMD: Andante appasionato.
!!!AIN: 1 piano 1 vox
!!!key: g#
**kern	**kern	**dynam	**kern	**text	**dynam
*part2	*part2	*part2	*part1	*part1	*part1
*staff3	*staff2	*	*staff1	*staff1	*
*I"Piano.	*I"Piano.	*	*I"Spiew	*	*
*Ipiano	*Ipiano	*	*Ivox	*	*
*ICklav	*ICklav	*	*ICvox	*	*
*IGacmp	*IGacmp	*	*IGsolo	*	*
*clefF4	*clefG2	*	*clefG2	*	*
*kcancel	*kcancel	*	*kcancel	*	*
*k[f#c#g#d#a#]	*k[f#c#g#d#a#]	*	*k[f#c#g#d#a#]	*	*
*g#:	*g#:	*	*g#:	*	*
*M4/4	*M4/4	*	*M4/4	*	*
*met(c)	*met(c)	*	*met(c)	*	*
=1	=1	=1	=1	=1	=1
(8.GG#/L	16r	pp	2r	.	.
.	([16d#KL [16B/	.	.	.	.
.	8d#]J 8B] 8G#/)	.	.	.	.
!LO:TX:b:i:t=con pedale	!	!	!	!	!
16D#/Jk	.	.	.	.	.
8.GG#/L	16r	.	.	.	.
.	([16g#KL [16d#/	.	.	.	.
.	8g#]J 8d#] 8B/)	.	.	.	.
16D#/Jk	.	.	.	.	.
8.GG#/L	16r	.	4r	.	.
.	([16d#KL [16B/	.	.	.	.
.	8d#]J 8B] 8G#/)	.	.	.	.
16D#/Jk	.	.	.	.	.
8.GG#/L	16r	.	8d#/	Nie	.
.	([16g#KL [16d#/	.	.	.	.
.	8g#]J 8d#] 8B/)	.	8d#/	drżyj	.
16D#/Jk)	.	.	.	.	.
=2	=2	=2	=2	=2	=2
!	!	!	!	!	!LO:HP:a
(8.GG#/L	16r	.	4.g#/	ser-	<
.	([16d#KL [16B/	.	.	.	.
.	8d#]J 8B] 8G#/)	.	.	.	.
16D#/Jk	.	.	.	.	.
8.GG#/L	16r	.	.	.	.
.	([16g#KL [16d#/	.	.	.	.
.	8g#]J 8d#] 8B/)	.	8g#/	-ce	.
16D#/Jk	.	.	.	.	.
8.FF#/L	16r	.	4.g#/	tak	.
.	([16d#KL [16B/	.	.	.	.
.	8d#]J 8B] 8G#/)	.	.	.	.
16D#/Jk	.	.	.	.	.
8.FF#/L	16r	.	.	.	.
.	([16g#KL [16d#/	.	.	.	.
.	8g#]J 8d#] 8B/)	.	8g#/	ku	[
16D#/Jk)	.	.	.	.	.
!!LO:LB:g=original
=3	=3	=3	=3	=3	=3
!LO:TX:b:t=sempre legato	!	!	!	!	!
8.EE#X/L	16r	.	4b\	bu-	.
.	([16c##XKL [16B/	.	.	.	.
.	8c##]J 8B] 8G#/)	.	.	.	.
16E#X/Jk	.	.	.	.	.
8.EE#/L	16r	.	4b\	-rzy.	.
.	([16g#KL [>16c##/	.	.	.	.
.	8g#]J 8c##] 8B/)	.	.	.	.
16E#/Jk	.	.	.	.	.
8.EEn/L	16r	.	4r	.	.
.	([16c##KL [16B/	.	.	.	.
.	8c##]J 8B] 8G#/)	.	.	.	.
16En/Jk	.	.	.	.	.
!	!	!	!LO:TX:a:i:t=sonore	!	!
8.EE/L	16r	.	8c##X/	Jak	.
.	([16g#KL [16c##/	.	.	.	.
.	8g#]J 8c##] 8B/)	.	8c##/	spo-	.
16E/Jk	.	.	.	.	.
=4	=4	=4	=4	=4	=4
8.DD#/L	16r	.	(2d#/	-koj-	.
.	([16d#KL [16B/	.	.	.	.
.	8d#]J 8B] 8G#/)	.	.	.	.
16D#/Jk	.	.	.	.	.
8.DD#/L	16r	.	.	.	.
.	([16d#KL [16B/	.	.	.	.
.	8d#]J 8B] 8G#/)	.	.	.	.
16D#/Jk	.	.	.	.	.
8.CC#/L	16r	.	4.e/)	.	.
.	([16eKL [>16A#/	.	.	.	.
.	8e]J 8A#] 8G#/)	.	.	.	.
16C#/Jk	.	.	.	.	.
8.CC#/L	16r	.	.	.	.
.	([16eKL [>16A#/	.	.	.	.
.	8e]J 8A#] 8G#/)	.	8e/	-nie	.
16C#/Jk	.	.	.	.	.
!!LO:LB:g=original
=5	=5	=5	=5	=5	=5
8.DD#/L	16r	.	2d#/	tu	.
.	([16d#KL [>16A#/	.	.	.	.
.	8d#]J 8A#] 8F##X/)	.	.	.	.
16D#/Jk	.	.	.	.	.
8.DD#/L	16r	.	.	.	.
.	([>16d#/KL	.	.	.	.
.	8d#]J 8F##/)	.	.	.	.
16D#/Jk	.	.	.	.	.
8.EE#X/L	16r	.	4r	.	.
.	([>16d#/KL	.	.	.	.
.	8d#]J 8F##/)	.	.	.	.
16D#/Jk	.	.	.	.	.
!	!	!	!	!	!LO:DY:a
8.FF##X/L	16r	.	8d#/	szem-	p
.	([16d#KL [16c#/	.	.	.	.
.	8d#]J 8c#] 8A#/)	.	8d#/	-rzą	.
16D#/Jk	.	.	.	.	.
=6	=6	=6	=6	=6	=6
!	!	!	!	!	!LO:HP:a
8.GG#/L	16r	p	4a#/	drze-	>
.	([16a#KL [>16d#^>/	.	.	.	.
.	8a#]J 8d#] 8B/)	.	.	.	.
16D#/Jk	.	.	.	.	.
8.BB/L	16r	.	4g#/	-wa,	]
.	([16g#KL [>16d#/	.	.	.	.
.	8g#]J 8d#] 8B/)	.	.	.	.
16D#/Jk	.	.	.	.	.
8.GG#/L	16r	.	4r	.	.
.	([16d#KL [16B/	.	.	.	.
.	8d#]J 8B] 8G#/)	.	.	.	.
16D#/Jk	.	.	.	.	.
8.FF##X/L	16r	.	8d#/	szem-	.
.	([16d#KL [16c#/	.	.	.	.
.	8d#]J 8c#] 8A#/)	.	8d#/	-rzą	.
16D#/Jk	.	.	.	.	.
=7	=7	=7	=7	=7	=7
!	!	!	!	!	!LO:HP:a
8.GG#/L	16r	.	4a#/	drze-	>
.	([16a#KL [16d#/	.	.	.	.
.	8a#]J 8d#] 8B/)	.	.	.	.
16D#/Jk	.	.	.	.	.
8.GG#/L	16r	.	4g#/	-wa,	]
.	([16g#KL [16d#/	.	.	.	.
.	8g#]J 8d#] 8B/)	.	.	.	.
16D#/Jk	.	.	.	.	.
8.BB/L	16r	.	4r	.	.
.	([16g#KL [16d#/	.	.	.	.
.	8g#]J 8d#] 8B/)	.	.	.	.
16D#/Jk	.	.	.	.	.
8.BB/L	16r	.	(8g#/	fa-	.
.	([16g#KL [16d#/	.	.	.	.
.	8g#]J 8d#] 8B/)	.	8g#/	-la	.
16D#/Jk	.	.	.	.	.
!!LO:LB:g=original
=8	=8	=8	=8	=8	=8
8.AA#\L	16r	.	(4dd#^\	wtó-	.
.	([16dd#KL [16g#/	.	.	.	.
.	8dd#]J 8g#] 8c#/)	.	.	.	.
16G#\Jk	.	.	.	.	.
8.AA#\L	16r	.	2cc#\))	.	.
.	([16cc#KL [>16g#/	.	.	.	.
.	8cc#]J 8g#] 8c#/)	.	.	.	.
16G#\Jk	.	.	.	.	.
8.AA#\L	16r	.	.	.	.
.	([16cc#KL [>16g#/	.	.	.	.
.	8cc#]J 8g#] 8c#/)	.	.	.	.
16G#\Jk	.	.	.	.	.
8.AA#\L	16r	.	4cc#\	-rzy	.
.	([16cc#KL [>16g#/	.	.	.	.
.	8cc#]J 8g#] 8c#/)	.	.	.	.
16G#\Jk	.	.	.	.	.
=9	=9	=9	=9	=9	=9
!	!	!	!	!	!LO:DY:a:rj
8.D#\L	16r	.	4d#/	tej	p
!	!	!	!	!	!LO:HP:a
.	([>16d#/KL	.	.	.	<
.	8d#]J 8c#/)	.	.	.	.
16F##X\Jk	.	.	.	.	.
8.D#\L	16r	.	4e#X/	pio-	.
.	([>16e#/KL	.	.	.	.
.	8e#]J 8c#/)	.	.	.	.
16G#\Jk	.	.	.	.	.
8.D#\L	16r	.	4.f##X/	-sen-	[
.	([16f##XKL [16d#/	.	.	.	>
.	8f##]J 8d#] 8c#/)	.	.	.	.
16A#\Jk	.	.	.	.	.
8.D#\L	16r	.	.	.	.
.	([16f##KL [>16d#/	.	.	.	.
.	8f##]J 8d#] 8c#/)	.	8g#/	-ce	.
16A#\Jk	.	.	.	.	]]
=10	=10	=10	=10	=10	=10
8.GG#/L	16r	.	2g#/	snu.	.
.	([16g#KL [16d#/	.	.	.	.
.	8g#]J 8d#] 8B/)	.	.	.	.
16D#/Jk	.	.	.	.	.
8.GG#/L	16r	.	.	.	.
.	([16dd#KL [16b/	.	.	.	.
.	8dd#]J 8b] 8g#/)	.	.	.	.
16D#/Jk	.	.	.	.	.
8.GG#/L	16r	.	4r	.	.
.	([16bKL [16g#/	.	.	.	.
.	8b]J 8g#] 8c#/)	.	.	.	.
16D#/Jk	.	.	.	.	.
!	!	!	!	!	!LO:DY:a
8.GG#/L	16r	.	(4g#/	Dzi-	p
.	([16g#KL [>16d#/	.	.	.	.
.	8g#]J 8d#] 8B/)	.	.	.	.
16D#/Jk	.	.	.	.	.
*clefG2	*	*	*	*	*
!!LO:PB:g=original
=11	=11	=11	=11	=11	=11
*	*^	*	*	*	*
*tremolo	*	*	*	*	*	*
!	!	!	!	!LO:TX:a:i:t=tranquillo	!	!
!	!	!	!	!LO:TX:a:t=P:problem=brak zakończenia łuku	!	!
16B/LL	8r	8ryy	.	4.an/)	.	.
16d#/	.	.	.	.	.	.
!	!	!	!LO:DY:rj	!	!	!
16B/	(8an/L	4.an\	pp	.	.	.
16d#/	.	.	.	.	.	.
16B/	8dd#/	.	.	.	.	.
16d#/	.	.	.	.	.	.
16B/	8gg#/J)	.	.	8B/	-wno,	.
16d#/JJ	.	.	.	.	.	.
16B/LL	8ff#/L	8ryy	.	4e/	daw-	.
16e/	.	.	.	.	.	.
16B/	(8ee/	4.g#\	.	.	.	.
16e/	.	.	.	.	.	.
16B/	8dd#/	.	.	4g#/	-niej	.
16e/	.	.	.	.	.	.
16B/	8cc#/J)	.	.	.	.	.
16e/JJ	.	.	.	.	.	.
*Xtremolo	*	*	*	*	*	*
=12	=12	=12	=12	=12	=12	=12
16B\LL	8cc#/L	8ryy	.	4.b\	śni-	.
16d#\	.	.	.	.	.	.
*clefF4	*	*	*	*	*	*
16D#\	(8b/	4.f#\	.	.	.	.
16B\	.	.	.	.	.	.
16D#\	8a#X/	.	.	.	.	.
16B\	.	.	.	.	.	.
16D#\	8an/J)	.	.	8cc#\	-łem	.
16B\JJ	.	.	.	.	.	.
16E\LL	8a/L	8ryy	.	4cc#\	ty-	.
16B\	.	.	.	.	.	.
16E\	(8g#/	8e\	.	.	.	.
16B\	.	.	.	.	.	.
16An\	8f#/	4ryy	.	4b\	-le,	.
16B\	.	.	.	.	.	.
16G#\	8e/J)	.	.	.	.	.
16B\JJ	.	.	.	.	.	.
=13	=13	=13	=13	=13	=13	=13
*clefG2	*	*	*	*	*	*
*tremolo	*	*	*	*	*	*
16B/LL	8r	8ryy	.	4.an\	snu-	.
16d#/	.	.	.	.	.	.
16B/	(8an/L	4.an\	.	.	.	.
16d#/	.	.	.	.	.	.
16B/	8dd#/	.	.	.	.	.
16d#/	.	.	.	.	.	.
16B/	8gg#/J	.	.	8B/	-łem	.
16d#/JJ	.	.	.	.	.	.
16B/LL	8ff#/L)	8ryy	.	4e/	ma-	.
16e/	.	.	.	.	.	.
16B/	(8ee/	4.g#\	.	.	.	.
16e/	.	.	.	.	.	.
16B/	8dd#/	.	.	4g#/	-rzeń	.
16e/	.	.	.	.	.	.
16B/	8cc#/J)	.	.	.	.	.
16e/JJ	.	.	.	.	.	.
*Xtremolo	*	*	*	*	*	*
!!LO:LB:g=original
=14	=14	=14	=14	=14	=14	=14
16B\LL	8cc#/L	8ryy	.	2.b\	nić.	.
16d#\	.	.	.	.	.	.
*clefF4	*	*	*	*	*	*
16D#\	(8b/	4.f#\	.	.	.	.
16B\	.	.	.	.	.	.
16D#\	8a#X/	.	.	.	.	.
16B\	.	.	.	.	.	.
16D#\	8an/J)	.	.	.	.	.
16B\JJ	.	.	.	.	.	.
16E\LL	8a/L	8ryy	.	.	.	.
16B\	.	.	.	.	.	.
16E\	(8g#/	8e\	.	.	.	.
16B\	.	.	.	.	.	.
16An\	8f#/	4ryy	.	4r	.	.
16B\	.	.	.	.	.	.
16G#\	8e/J)	.	.	.	.	.
16B\JJ	.	.	.	.	.	.
=15	=15	=15	=15	=15	=15	=15
*tremolo	*	*	*	*	*	*
16A#X\LL	8r	8ryy	.	4r	.	.
16c#\	.	.	.	.	.	.
16A#\	(8f#/L	4.f#\	.	.	.	.
16c#\	.	.	.	.	.	.
16A#\	8cc#/	.	.	8cc#\	Dzi-	.
16c#\	.	.	.	.	.	.
16A#\	8ee/J)	.	.	8f#/	-siaj	.
16c#\JJ	.	.	.	.	.	.
16B\LL	8ee/L	8ryy	.	4f#/	chciał-	.
16d#\	.	.	.	.	.	.
16B\	(8dd#/	4.f#\	.	.	.	.
16d#\	.	.	.	.	.	.
16B\	8cc#/	.	.	4b\	-bym	.
16d#\	.	.	.	.	.	.
16B\	8b/J)	.	.	.	.	.
16d#\JJ	.	.	.	.	.	.
=16	=16	=16	=16	=16	=16	=16
16F#LL 16D#\	8r	8ryy	.	4r	.	.
16B#X\	.	.	.	.	.	.
16F# 16D#\	(8b#X/L	4.b#\	.	.	.	.
16B#\	.	.	.	.	.	.
16F# 16D#\	8ff#/	.	.	8an/	choć	.
16B#\	.	.	.	.	.	.
16F# 16D#\	8aan/J)	.	.	8B#X/	na	.
16B#X\JJ	.	.	.	.	.	.
16G#LL 16E\	8aa/L	8ryy	.	4c#/	chwi-	.
16c#\	.	.	.	.	.	.
16G# 16E\	(8gg#/	4.g#\	.	.	.	.
16c#\	.	.	.	.	.	.
16G# 16E\	8ee/	.	.	4g#/	-lę	.
16c#\	.	.	.	.	.	.
16G# 16E\	8cc#/J)	.	.	.	.	.
16c#\JJ	.	.	.	.	.	.
!!LO:LB:g=original
=17	=17	=17	=17	=17	=17	=17
16BLL 16F#\	8gg#/L	8ryy	.	4f#/	tak	.
16d#\	.	.	.	.	.	.
16B 16F#\	(8ff#/	4.f#\	.	.	.	.
16d#\	.	.	.	.	.	.
!	!	!	!	!	!	!LO:HP:a
16B 16F#\	8dd#/	.	.	4dd#\	jak	<
16d#\	.	.	.	.	.	.
16B 16F#\	8b/J	.	.	.	.	.
16d#\JJ	.	.	.	.	.	.
*Xtremolo	*	*	*	*	*	*
16F#\LL	8dd#/L)	8ryy	.	4.ee\	daw-	.
16A#\	.	.	.	.	.	.
16F#\	(8cc#/	4.e\	.	.	.	.
16A#\JJ	.	.	.	.	.	.
16F#\LL	8b/	.	.	.	.	.
16c#\	.	.	.	.	.	.
16F#\	8a#/J	.	.	8ee\	-niej	.
16c#\JJ	.	.	.	.	.	[[
=18	=18	=18	=18	=18	=18	=18
*tremolo	*	*	*	*	*	*
!	!LO:TX:b:i:t=rit:color=red	!	!	!	!	!LO:HP:a
16BB\LL	8cc#/L)	8ryy	.	(4.dd#\	śnić!	>
16B\	.	.	.	.	.	.
16BB\	(8b/	4.d#\	.	.	.	.
16B\	.	.	.	.	.	.
16BB\	8a#/	.	.	.	.	.
16B\	.	.	.	.	.	.
16BB\	8b/J	.	.	8cc#\	.	]
16B\JJ	.	.	.	.	.	.
16BB\LL	8ee/L)	8ryy	.	4b\)	.	.
16F#\	.	.	.	.	.	.
16BB\	(8dd#/	4.d#\	.	.	.	.
16F#\	.	.	.	.	.	.
16BB\	8cc#/	.	.	4r	.	.
16F#\	.	.	.	.	.	.
16BB\	8b/J	.	.	.	.	.
16F#\JJ	.	.	.	.	.	.
=19	=19	=19	=19	=19	=19	=19
16BB\LL	8a#/L)	8ryy	.	2r	.	.
16B\	.	.	.	.	.	.
16BB\	(8g#/	4.d#\	.	.	.	.
16B\	.	.	.	.	.	.
16BB\	8f##X/	.	.	.	.	.
16B\	.	.	.	.	.	.
16BB\	8g#/J	.	.	.	.	.
16B\JJ	.	.	.	.	.	.
16BB\LL	8cc#/L)	8ryy	.	4r	.	.
!	!	!	!	!	!	!LO:HP:a
16B\	.	.	.	.	.	<
16BB\	(8b/	4.d#\	.	.	.	.
16B\	.	.	.	.	.	.
16BB\	8a#/	.	.	4d#/	tak	.
16B\	.	.	.	.	.	.
16BB\	8g#/J)	.	.	.	.	.
16B\JJ	.	.	.	.	.	[[
*Xtremolo	*	*	*	*	*	*
*	*v	*v	*	*	*	*
!!LO:LB:g=original
=20	=20	=20	=20	=20	=20
!	!	!	!	!	!LO:HP:a
8.AA#\L	16r	.	2.a#\	snić!	>
.	([16f#KL [16c##X/	.	.	.	.
.	8f#]J 8c##] 8A#/)	.	.	.	.
!	!LO:TX:b:t=cres-cen-do:problem=dynamics with extention lines	!LO:HP:t=cres-cen-do	!	!	!
16G#\Jk	.	<	.	.	]
8.AA#\L	16r	.	.	.	.
.	([16e#XKL [>16c##/	.	.	.	.
.	8e#]J 8c##] 8A#/)	.	.	.	.
16G#\Jk	.	.	.	.	.
8.AA#\L	16r	.	.	.	.
.	([16bKL [>16e#/	.	.	.	.
.	8b]J 8e#] 8c##/)	[	.	.	.
16G#\Jk	.	.	.	.	.
8.AA#\L	16r	.	4r	.	.
.	([16a#KL [>16e#/	.	.	.	.
.	8a#]J 8e#] 8c##/)	.	.	.	.
16G#\Jk	.	.	.	.	.
=21	=21	=21	=21	=21	=21
8.D#\L	16r	.	2r	.	.
!	!LO:N:n=2:acc=n#	!	!	!	!
.	([16enKL [16cn/	.	.	.	.
.	8e]J 8c] 8A#/)	.	.	.	.
16G#\Jk	.	.	.	.	.
8.D#\L	16r	.	.	.	.
.	([16d#KL [16c/	.	.	.	.
.	8d#]J 8c] 8A#/)	.	.	.	.
16G#\Jk	.	.	.	.	.
8.D#\L	16r	.	4r	.	.
.	([16bKL [>16d#/	.	.	.	.
.	8b]J 8d#] 8c/)	.	.	.	.
16F##X\Jk	.	.	.	.	.
!	!	!	!LO:TX:a:i:t=più sonore	!	!
8.D#\L	16r	.	8d#/	Nie-	.
.	([16a#KL [>16d#/	.	.	.	.
.	8a#]J 8d#] 8c/)	.	8d#/	-raz	.
16F##\Jk	.	.	.	.	.
=22	=22	=22	=22	=22	=22
8.GG#/L	16r	mf	4.g#/	po[[ś]]-	.
.	([16d#KL [16B/	.	.	.	.
.	8d#]J 8B] 8G#/)	.	.	.	.
16D#/Jk	.	.	.	.	.
8.GG#/L	16r	.	.	.	.
.	([16g#KL [>16d#/	.	.	.	.
.	8g#]J 8d#] 8B/)	.	8g#/	-śród	.
16D#/Jk	.	.	.	.	.
!	!	!	!LO:N:vis=4	!	!
8.FF#/L	16r	.	4.g#/	bu-	.
.	([16d#KL [16B/	.	.	.	.
.	8d#]J 8B] 8G#/)	.	.	.	.
16D#/Jk	.	.	.	.	.
8.FF#/L	16r	.	.	.	.
.	([16g#KL [16d#/	.	.	.	.
.	8g#]J 8d#] 8B/)	.	8g#/	-rzy	.
16D#/Jk	.	.	.	.	.
!!LO:PB:g=original
=23	=23	=23	=23	=23	=23
8.EE#X/L	16r	.	4b\	wy-	.
.	([16c#KL [16B/	.	.	.	.
.	8c#]J 8B] 8G#/)	.	.	.	.
16E#X/Jk	.	.	.	.	.
8.EE#/L	16r	.	4b\	-cia	.
.	([16g#KL [>16c#/	.	.	.	.
.	8g#]J 8c#] 8B/)	.	.	.	.
16E#/Jk	.	.	.	.	.
8.EEn/L	16r	.	4r	.	.
.	([16c#KL [16B/	.	.	.	.
.	8c#]J 8B] 8G#/)	.	.	.	.
16En/Jk	.	.	.	.	.
8.EE/L	16r	.	8c##X/	Jam	.
!	!	!LO:DY:color=red	!	!	!
.	16g#KL 16c#/	p	.	.	.
.	8g#J 8c# 8B/	.	8c##/	o	.
16E/Jk	.	.	.	.	.
=24	=24	=24	=24	=24	=24
!	!	!	!	!	!LO:HP:a
8.DD#/L	16r	.	2d#/	gwiazd-	>
.	([16d#KL [16B/	.	.	.	.
.	8d#]J 8B] 8G#/)	.	.	.	.
16D#/Jk	.	.	.	.	.
8.DD#/L	16r	.	.	.	.
.	([16d#KL [16B/	.	.	.	.
.	8d#]J 8B] 8G#/)	.	.	.	.
16D#/Jk	.	.	.	.	.
8.CC#/L	16r	.	4.e/	.	.
.	([16eKL [16A#/	.	.	.	.
.	8e]J 8A#] 8G#/)	.	.	.	.
16C#/Jk	.	.	.	.	.
8.CC#/L	16r	.	.	.	.
.	([16eKL [16A#/	.	.	.	.
.	8e]J 8A#] 8G#/)	.	8e/	-ce	]]
16C#/Jk	.	.	.	.	.
=25	=25	=25	=25	=25	=25
8.DD#/L	16r	.	2d#/	śnił.	.
.	([16d#KL [16A#/	.	.	.	.
.	8d#]J 8A#] 8F##X/)	.	.	.	.
16D#/Jk	.	.	.	.	.
8.DD#/L	16r	.	.	.	.
.	([>16d#/KL	.	.	.	.
.	8d#]J 8G#/)	.	.	.	.
16D#/Jk	.	.	.	.	.
8.EE#X/L	16r	.	4r	.	.
.	([>16d#/KL	.	.	.	.
.	8d#]J 8G#/)	.	.	.	.
16D#/Jk	.	.	.	.	.
!	!	!	!	!	!LO:DY:a
8.FF##X/L	16r	.	8d#/	Dzi-	p
.	([16d#KL [16c#/	.	.	.	.
.	8d#]J 8c#] 8A#/)	.	8d#/	-siaj	.
16D#/Jk	.	.	.	.	.
!!LO:LB:g=original
=26	=26	=26	=26	=26	=26
!	!	!	!	!	!LO:HP:a
8.GG#/L	16r	p	4a#/	wia-	>
.	([16a#KL [>16d#/	.	.	.	.
.	8a#]J 8d#] 8B/)	.	.	.	.
16D#/Jk	.	.	.	.	.
8.BB/L	16r	.	4g#/	-nek	.
.	([16g#KL [>16d#/	.	.	.	]
.	8g#]J 8d#] 8B/)	.	.	.	.
16D#/Jk	.	.	.	.	.
8.GG#/L	16r	.	4r	.	.
.	([16g#KL [>16d#/	.	.	.	.
.	8g#]J 8d#] 8B/)	.	.	.	.
16D#/Jk	.	.	.	.	.
8.FF##X/L	16r	.	8.d#/	dzi-	.
.	([16d#KL [16c#/	.	.	.	.
.	8d#]J 8c#] 8A#/)	.	.	.	.
16D#/Jk	.	.	16d#/	-siaj	.
=27	=27	=27	=27	=27	=27
!	!	!	!	!	!LO:HP:a
8.GG#/L	16r	.	4a#\	wia-	>
.	([16a#KL [16d#/	.	.	.	.
.	8a#]J 8d#] 8B/)	.	.	.	.
16D#/Jk	.	.	.	.	.
8.GG#/L	16r	.	4g#\	-nek	]
.	([16g#KL [>16d#/	.	.	.	.
.	8g#]J 8d#] 8B/)	.	.	.	.
16D#/Jk	.	.	.	.	.
8.BB\L	16r	.	4r	.	.
.	([16g#KL [>16d#/	.	.	.	.
.	8g#]J 8d#] 8B/)	.	.	.	.
16D#\Jk	.	.	.	.	.
8.BB\L	16r	.	8g#/	my-	.
.	([16g#KL [>16d#/	.	.	.	.
.	8g#]J 8d#] 8B/)	.	8g#/	-śli	.
16D#\Jk	.	.	.	.	.
=28	=28	=28	=28	=28	=28
8.AA#\L	16r	.	(4dd#\	ży-	.
.	([16dd#KL [16g#/	.	.	.	.
.	8dd#]J 8g#] 8c#/)	.	.	.	.
16G#\Jk	.	.	.	.	.
!	!	!	!	!	!LO:DY:a
8.AA#\L	16r	.	2cc#\)	.	<
.	([16cc#KL [16g#/	.	.	.	.
.	8cc#]J 8g#] 8c#/)	.	.	.	.
16G#\Jk	.	.	.	.	.
8.AA#\L	16r	.	.	.	.
.	([16cc#KL [16g#/	.	.	.	.
.	8cc#]J 8g#] 8c#/)	.	.	.	.
16G#\Jk	.	.	.	.	.
8.AA#\L	16r	.	4cc#\	-cia	.
.	([16cc#KL [16g#/	.	.	.	.
.	8cc#]J 8g#] 8c#/)	.	.	.	.
16G#\Jk	.	.	.	.	[[
!!LO:LB:g=original
=29	=29	=29	=29	=29	=29
!	!	!	!	!	!LO:DY:a
8.D#\L	16r	.	4d#/	z_gro-	p
!	!	!	!	!	!LO:HP:a
.	([>16d#/KL	.	.	.	<
.	8d#]J 8c#/)	>	.	.	.
!LO:TX:a:i:t=rit:color=red	!	!	!	!	!
16F##X\Jk	.	.	.	.	.
8.D#\L	16r	.	4e#X/	-mów	.
.	([>16e#X/KL	.	.	.	.
.	8e#]J 8B/)	.	.	.	.
16G#\Jk	.	.	.	.	.
8.D#\L	16r	.	4.f##X/	mi	[
!	!	!	!	!	!LO:HP:a
.	([16f##XKL [16d#/	.	.	.	>
.	8f##]J 8d#] 8B/)	.	.	.	.
16A#\Jk	.	.	.	.	.
8.D#\L	16r	.	.	.	.
.	16f##KL 16d#/	.	.	.	.
.	8f##J 8d# 8c#/	]]	8g#/	się	.
16A#\Jk	.	.	.	.	]
=30	=30	=30	=30	=30	=30
8.E\L	16r	.	2g#/	zwił.	.
.	([16cc#KL [16g#/	.	.	.	.
!	!LO:TX:b:Bi:t=appas-sio-na-to:dur=6eq:ext=cd:problem=text with extention lines	!	!	!	!
.	8cc#]J 8g#] 8c#/)	.	.	.	.
16G#\Jk	.	.	.	.	.
8.E#X\L	16r	.	.	.	.
.	[16gg#KL [16cc#\	.	.	.	.
.	8gg#]J 8cc#] 8g#\	.	.	.	.
16B\Jk	.	.	.	.	.
8.F#\L	16r	.	2r	.	.
.	([16dd#KL [>16an/	.	.	.	.
.	8dd#]J 8a] 8d#/)	.	.	.	.
16cn\Jk	.	.	.	.	.
8.Gn\L	16r	.	.	.	.
.	[16aa#KL 16dd#\	.	.	.	.
.	8aa#]J 8dd# 8a\	.	.	.	.
16d-X\Jk	.	.	.	.	.
=31	=31	=31	=31	=31	=31
8.G#\L	16r	.	2r	.	.
.	(<[16ffnKL [>16b\	.	.	.	.
.	8ff]J 8b] 8fn\)	.	.	.	.
16dn\Jk	.	.	.	.	.
8.An\L	16r	.	.	.	.
.	[16cccnKL [16ff#X\	.	.	.	.
.	8ccc]J 8ff#] 8ccn\	.	.	.	.
16e-X\Jk	.	.	.	.	.
8.B-X\L	16r	.	4r	.	.
!	!LO:N:n=1:acc=n-	!	!	!	!
.	(<[16ddd-KL 16ggn\	.	.	.	.
!	!LO:N:n=3:acc=n-	!LO:HP:t=dimin.	!	!	!
.	8ddd-]J 8gg 8dd-\)	>	.	.	.
16e-X\Jk	.	.	.	.	.
!	!	!	!LO:TX:a:i:t=sotto voce	!	!
8.E-X\L	16r	.	(4e-X/	Och	.
.	([16dd-KL [>16gn/	.	.	.	.
.	8dd-]J 8g] 8d-y/)	.	.	.	.
16e-\Jk	.	.	.	.	.
*clefG2	*	*	*	*	*
!!LO:LB:g=original
=32||	=32||	=32||	=32||	=32||	=32||
*k[b-e-a-d-]	*k[b-e-a-d-]	*	*k[b-e-a-d-]	*	*
*	*^	*	*	*	*
*tremolo	*	*	*	*	*	*
!	!	!	!	!LO:TX:a:i:t=ma molto espressivo	!	!
16A-/LL	8r	8ryy	.	4.cc\)	.	.
16e-/	.	.	.	.	.	.
16A-/	(8ee-/L	4.cc\	pp	.	.	.
16e-/	.	.	.	.	.	.
16A-/	8aa-/	.	.	.	.	.
16e-/	.	.	.	.	.	.
16A-/	8ccc/J	.	.	8cc\	przy-	.
16e-/JJ	.	.	.	.	.	.
16A-/LL	8eee-/L)	8ryy	.	4ee-\	-ci-	.
16e-/	.	.	.	.	.	.
16A-/	(8aa-/	4.cc\	.	.	.	.
16e-/	.	.	.	.	.	.
16A-/	8gg/	.	.	4a-/	-snę	.
16e-/	.	.	.	.	.	.
16A-/	8ff/J	.	.	.	.	.
16e-/JJ	.	.	.	.	.	.
=33	=33	=33	=33	=33	=33	=33
16B-/LL	8ee-/L)	8ryy	.	4g/	do	.
16e-/	.	.	.	.	.	.
16B-/	(8ddn/	4.g\	.	.	.	.
16e-/	.	.	.	.	.	.
16B-/	8dd-X/	.	.	4f/	tej	.
16e-/	.	.	.	.	.	.
16B-/	8cc/J	.	.	.	.	.
16e-/JJ	.	.	.	.	.	.
16E-/LL	8dd-/L)	8ryy	.	4e-/	zie-	.
16e-/	.	.	.	.	.	.
16E-/	(8b-/	4.d-\	.	.	.	.
16e-/	.	.	.	.	.	.
16E-/	8g/	.	.	4dd-\	-mi	.
16e-/	.	.	.	.	.	.
16E-/	8e-/J)	.	.	.	.	.
16e-/JJ	.	.	.	.	.	.
*Xtremolo	*	*	*	*	*	*
=34	=34	=34	=34	=34	=34	=34
16A-/LL	8r	8ryy	.	4cc\	roz-	.
16e-/	.	.	.	.	.	.
16A-/	(8ee-/L	4.cc\	.	.	.	.
16e-/JJ	.	.	.	.	.	.
16c/LL	8aa-/	.	.	4a-/	-pa-	.
16e-/	.	.	.	.	.	.
16c/	8ccc/J)	.	.	.	.	.
16e-/JJ	.	.	.	.	.	.
*tremolo	*	*	*	*	*	*
16Bn/LL	8r	8ryy	.	4g/	-lo-	.
16dn/	.	.	.	.	.	.
16B/	(8ddn/L	4.g\	.	.	.	.
16d/	.	.	.	.	.	.
16B/	8ff/	.	.	4f/	-ną	.
16d/	.	.	.	.	.	.
16B/	8aa-/J	.	.	.	.	.
16d/JJ	.	.	.	.	.	.
=35	=35	=35	=35	=35	=35	=35
16c/LL	8gg/L)	8ryy	.	2e-/	skroń!	.
16e-/	.	.	.	.	.	.
16c/	(8ff/	4.g\	.	.	.	.
16e-/	.	.	.	.	.	.
16c/	8ee-/	.	.	.	.	.
16e-/	.	.	.	.	.	.
16c/	8ddn/J	.	.	.	.	.
16e-/JJ	.	.	.	.	.	.
*Xtremolo	*	*	*	*	*	*
16B-X/LL	8dd-X/L)	8ryy	.	4r	.	.
16e-/	.	.	.	.	.	.
16B-/	(8cc/	4.g\	.	.	.	.
16e-/JJ	.	.	.	.	.	.
16E-/LL	8b-/	.	.	(4e-/	Mo-	.
16e-/	.	.	.	.	.	.
16E-/	8bn/J)	.	.	.	.	.
16e-/JJ	.	.	.	.	.	.
!!LO:PB:g=original
=36	=36	=36	=36	=36	=36	=36
*tremolo	*	*	*	*	*	*
!	!	!	!	!LO:TX:a:t=P:problem=brak zakończenia łuku	!	!
16A-/LL	8r	8ryy	.	4.cc\)	.	.
16e-/	.	.	.	.	.	.
16A-/	8ee-/L	4.cc\	.	.	.	.
16e-/	.	.	.	.	.	.
16A-/	8aa-/	.	.	.	.	.
16e-/	.	.	.	.	.	.
16A-/	8ccc/J	.	.	8cc\	-że	.
16e-/JJ	.	.	.	.	.	.
16A-/LL	8eee-/L	8ryy	.	4ee-\	mo-	.
16e-/	.	.	.	.	.	.
16A-/	8aa-/	4.cc\	.	.	.	.
16e-/	.	.	.	.	.	.
16A-/	8gg/	.	.	4a-/	-że	.
16e-/	.	.	.	.	.	.
16A-/	8ff/J	.	.	.	.	.
16e-/JJ	.	.	.	.	.	.
=37	=37	=37	=37	=37	=37	=37
16B-/LL	8ee-/L	8ryy	.	4g/	chło-	.
16e-/	.	.	.	.	.	.
16B-/	(8ddn/	4.g\	.	.	.	.
16e-/	.	.	.	.	.	.
16B-/	8dd-X/	.	.	4f/	-dy	.
16e-/	.	.	.	.	.	.
16B-/	8cc/J	.	.	.	.	.
16e-/JJ	.	.	.	.	.	.
16E-/LL	8dd-/L)	8ryy	.	4e-/	swe-	.
16e-/	.	.	.	.	.	.
16E-/	(8b-/	4.d-\	.	.	.	.
16e-/	.	.	.	.	.	.
16E-/	8g/	.	.	4dd-\	-mi	.
16e-/	.	.	.	.	.	.
16E-/	8e-/J)	.	.	.	.	.
16e-/JJ	.	.	.	.	.	.
=38	=38	=38	=38	=38	=38	=38
16A-/LL	8r	8ryy	.	4cc\	wle-	.
16e-/	.	.	.	.	.	.
16A-/	(8ee-/L	4.cc\	.	.	.	.
16e-/	.	.	.	.	.	.
16A-/	8aa-/	.	.	4e-/	-je	.
16e-/	.	.	.	.	.	.
16A-/	8ccc/J)	.	.	.	.	.
16e-/JJ	.	.	.	.	.	.
!	!	!	!	!	!	!LO:HP:a
16D-/LL	8r	8ryy	.	(2f/	po-	<
16d-/	.	.	.	.	.	.
16D-/	(8aa-/L	4.ff\	.	.	.	.
16d-/	.	.	.	.	.	.
16D-/	8ddd-/	.	.	.	.	.
16d-/	.	.	.	.	.	.
16D-/	8fff/J)	.	.	.	.	.
16d-/JJ	.	.	.	.	.	.
!!LO:LB:g=original
=39	=39	=39	=39	=39	=39	=39
16E-/LL	8r	8ryy	.	4.b-/)	.	.
16d-/	.	.	.	.	.	.
!	!	!LO:N:vis=4	!	!	!	!
16E-/	(8ee-/L	4.g\	.	.	.	[
16d-/	.	.	.	.	.	.
16E-/	8gg/	.	.	.	.	.
16d-/	.	.	.	.	.	.
!	!	!	!	!	!	!LO:HP:a
16E-/	8bb-/J)	.	.	8a-/	-kój	>
16d-/JJ	.	.	.	.	.	.
*Xtremolo	*	*	*	*	*	*
16A-/LL	8r	8ryy	.	4a-/	doń,	.
16e-/	.	.	.	.	.	.
16A-/	(8ee-/L	4.cc\	.	.	.	.
16e-/JJ	.	.	.	.	.	.
16A-/LL	8aa-/	.	.	4r	.	]
16e-/	.	.	.	.	.	.
16A-/	8ccc/J)	.	.	.	.	.
16e-/JJ	.	.	.	.	.	.
=40	=40	=40	=40	=40	=40	=40
*tremolo	*	*	*	*	*	*
!	!	!	!	!	!	!LO:HP:a
16A-/LL	8eee-/L	8ryy	.	(1ee-	po-	<
16e-/	.	.	.	.	.	.
16A-/	8ccc/	4.cc\	.	.	.	.
16e-/	.	.	.	.	.	.
16A-/	8aa-/	.	.	.	.	.
16e-/	.	.	.	.	.	.
16A-/	8ee-/J	.	.	.	.	.
16e-/JJ	.	.	.	.	.	.
16cLL 16A-/	8ccc/L	8ryy	.	.	.	.
16e-/	.	.	.	.	.	.
16c 16A-/	8aa-/	4.a-\	.	.	.	[
16e-/	.	.	.	.	.	.
16c 16A-/	8ee-/	.	.	.	.	.
16e-/	.	.	.	.	.	.
16c 16A-/	8cc/J	.	.	.	.	.
16e-/JJ	.	.	.	.	.	.
=41	=41	=41	=41	=41	=41	=41
!	!	!	!	!	!	!LO:HP:a
16B-LL 16A-/	8aa-/L	8ryy	.	2.a-/)	.	>
16e-/	.	.	.	.	.	.
16B- 16A-/	8ff-X/	4.f-X\	.	.	.	.
16e-/	.	.	.	.	.	.
16B- 16A-/	8dd-/	.	.	.	.	.
16e-/	.	.	.	.	.	.
16B- 16A-/	8b-/J	.	.	.	.	]
16e-/JJ	.	.	.	.	.	.
16B-LL 16A-/	8ff-/L	8ryy	.	.	.	.
16e-/	.	.	.	.	.	.
16B- 16A-/	8dd-/	4.f-\	.	.	.	.
16e-/	.	.	.	.	.	.
!	!	!	!	!	!	!LO:DY:a
16B- 16A-/	8b-/	.	.	4a-/	-kój	pp
16e-/	.	.	.	.	.	.
16B- 16A-/	8a-/J	.	.	.	.	.
16e-/JJ	.	.	.	.	.	.
*Xtremolo	*	*	*	*	*	*
!!LO:LB:g=original
=42	=42	=42	=42	=42	=42	=42
16cLL 16A-/	8ee-/L	8ryy	.	(1cc	doń!	.
16e-/	.	.	.	.	.	.
*clefF4	*	*	*	*	*	*
16AA-/	8cc/	4.c\	.	.	.	.
16E-/JJ	.	.	.	.	.	.
*tremolo	*	*	*	*	*	*
16AA-\LL	8a-/	.	.	.	.	.
16E-\	.	.	.	.	.	.
16AA-\	8e-/J	.	.	.	.	.
16E-\	.	.	.	.	.	.
16AA-\	8cc/L	8ryy	.	.	.	.
16E-\	.	.	.	.	.	.
16AA-\	8a-/	[4.A-\	.	.	.	.
16E-\	.	.	.	.	.	.
16AA-\	8e-/	.	.	.	.	.
16E-\	.	.	.	.	.	.
16AA-\	[<8c/J	.	.	.	.	.
16E-\JJ	.	.	.	.	.	.
*Xtremolo	*	*	*	*	*	*
*	*v	*v	*	*	*	*
=43	=43	=43	=43	=43	=43
8AA-/	8e- 8c] 8A-/]	.	4cc\)	.	.
(8c\L	8r	.	.	.	.
8A-\	4r	.	4r	.	.
8E-\J	.	.	.	.	.
8C/L	2r	.	2r	.	.
8AA-/	.	.	.	.	.
8EE-/	.	.	.	.	.
8CC/J)	.	.	.	.	.
=44||	=44||	=44||	=44||	=44||	=44||
*k[f#c#g#d#a#]	*k[f#c#g#d#a#]	*	*k[f#c#g#d#a#]	*	*
8GGG#/	16r	.	1r	.	.
.	([16d#KL [16B/	.	.	.	.
16r	8d#]J 8B] 8G#/)	.	.	.	.
(16F#\KL	.	.	.	.	.
!LO:N:vis=8	!	!	!	!	!
8.E#X\)	16r	.	.	.	.
.	([16c##XKL [16B/	.	.	.	.
.	8c##]J 8B] 8G#/)	.	.	.	.
16E#\Jk	.	.	.	.	.
(8.B\L	16r	.	.	.	.
.	([16g#KL [>16d#/	.	.	.	.
.	8g#]J 8d#] 8G#/)	.	.	.	.
16E#\Jk	.	.	.	.	.
8.A#\L	16r	.	.	.	.
.	([16g#KL [>16c##X/	.	.	.	.
.	8g#]J 8c##] 8G#/)	.	.	.	.
16E#\Jk)	.	.	.	.	.
!!LO:LB:g=original
=45	=45	=45	=45	=45	=45
(8.En\L	16r	.	2r	.	.
!	!LO:N:n=2:acc=n#	!	!	!	!
.	([16g#KL [>16c#X/	.	.	.	.
.	8g#]J 8c#] 8A#/)	.	.	.	.
16D#\Jk	.	.	.	.	.
8.E\L	16r	.	.	.	.
.	([16f##XKL [>16c#/	.	.	.	.
.	8f##]J 8c#] 8A#/)	.	.	.	.
16D#\Jk)	.	.	.	.	.
(8.B\L	16r	.	4r	.	.
.	([16dd#KL [>16g#/	.	.	.	.
.	8dd#]J 8g#] 8c#/)	.	.	.	.
16D#\Jk	.	.	.	.	.
!	!	!	!LO:TX:a:i:t=molto appassionato	!	!
8.A#\L	16r	.	8d#/	Przesz-	.
.	([16dd#KL [>16f##/	.	.	.	.
.	8dd#]J 8f##] 8c#/)	.	8d#/	-łość,	.
16D#\Jk)	.	.	.	.	.
=46	=46	=46	=46	=46	=46
8.GG#/L	16r	f	4.g#/	przy-	.
.	([16d#KL [16B/	.	.	.	.
.	8d#]J 8B] 8G#/)	.	.	.	.
16D#/Jk	.	.	.	.	.
8.GG#/L	16r	.	.	.	.
.	([16g#KL [16d#/	.	.	.	.
.	8g#]J 8d#] 8B/)	.	8g#/	-szłość	.
16D#/Jk	.	.	.	.	.
8.FF#/L	16r	.	4.g#/	pio-	.
.	([16d#KL [>16B/	.	.	.	.
.	8d#]J 8B] 8G#/)	.	.	.	.
16D#/Jk	.	.	.	.	.
8.FF#/L	16r	.	.	.	.
.	([16g#KL [>16d#/	.	.	.	.
.	8g#]J 8d#] 8B/)	.	8g#/	-ru-	.
16D#/Jk	.	.	.	.	.
=47	=47	=47	=47	=47	=47
8.EE#X/L	16r	.	4b\	-na-	.
.	16c##XKL 16B/	.	.	.	.
.	8c##J 8B 8G#/	.	.	.	.
16E#X/Jk	.	.	.	.	.
8.EE#/L	16r	.	4b\	-mi	.
.	([16g#KL [>16c##/	.	.	.	.
.	8g#]J 8c##] 8B/)	.	.	.	.
16E#/Jk	.	.	.	.	.
8.EEn/L	16r	.	4r	.	.
.	([16c##KL [16B/	.	.	.	.
.	8c##]J 8B] 8G#/)	.	.	.	.
16En/Jk	.	.	.	.	.
8.EE/L	16r	.	8cc##X\	Jak	.
.	16g#KL 16c##/	.	.	.	.
.	8g#J 8c## 8B/	.	8cc##\	pie-	.
16E/Jk	.	.	.	.	.
!!LO:PB:g=original
=48	=48	=48	=48	=48	=48
8.DD#/L	16r	.	(2dd#\	-kiel-	.
.	([16d#KL [16B/	.	.	.	.
.	8d#]J 8B] 8G#/)	.	.	.	.
16D#/Jk	.	.	.	.	.
8.DD#/L	16r	.	.	.	.
.	([16d#KL [16B/	.	.	.	.
.	8d#]J 8B] 8G#/)	.	.	.	.
16D#/Jk	.	.	.	.	.
8.CC#/L	16r	.	4.ee\)	.	.
.	([16eKL [>16A#/	.	.	.	.
.	8e]J 8A#] 8G#/)	.	.	.	.
16C#/Jk	.	.	.	.	.
8.CC#/L	16r	.	.	.	.
.	([16eKL [>16A#/	.	.	.	.
.	8e]J 8A#] 8G#/)	.	8e/	-ne-	.
16C#/Jk	.	.	.	.	.
=49	=49	=49	=49	=49	=49
8.DD#/L	16r	.	2d#/	-sny,	.
.	([16d#KL [16A#/	.	.	.	.
.	8d#]J 8A#] 8F##X/)	.	.	.	.
16D#/Jk	.	.	.	.	.
8.DD#/L	16r	.	.	.	.
.	([>16d#/KL	.	.	.	.
.	8d#]J 8F##/)	.	.	.	.
16D#/Jk	.	.	.	.	.
8.EE#X/L	16r	.	4r	.	.
.	([>16d#/KL	.	.	.	.
.	8d#]J 8G#/)	.	.	.	.
16D#/Jk	.	.	.	.	.
!	!	!	!	!	!LO:DY:a
8.FF##X/L	16r	.	8d#/	Gra-	p
.	([16d#KL [16c#/	.	.	.	.
.	8d#]J 8c#] 8A#/)	.	8d#/	-ją	.
16D#/Jk	.	.	.	.	.
=50	=50	=50	=50	=50	=50
!	!	!	!	!	!LO:HP:a
8.GG#/L	16r	p	4a#\	w_du-	>
.	([16a#KL [>16d#/	.	.	.	.
.	8a#]J 8d#] 8B/)	.	.	.	.
16D#/Jk	.	.	.	.	.
8.BB/L	16r	.	4g#/	-szy	]
.	([16g#KL [>16d#/	.	.	.	.
.	8g#]J 8d#] 8B/)	.	.	.	.
16D#/Jk	.	.	.	.	.
8.GG#/L	16r	.	4r	.	.
.	([16d#KL [16B/	.	.	.	.
.	8d#]J 8B] 8G#/)	.	.	.	.
16D#/Jk	.	.	.	.	.
8.FF##X/L	16r	.	8d#/	gra-	.
.	([16d#KL [16c#/	.	.	.	.
.	8d#]J 8c#] 8A#/)	.	8d#/	-ją	.
16D#/Jk	.	.	.	.	.
!!LO:LB:g=original
=51	=51	=51	=51	=51	=51
!	!	!	!	!	!LO:HP:a
8.GG#/L	16r	.	4a#/	w_du-	>
.	([16a#KL [>16d#^>/	.	.	.	.
.	8a#]J 8d#] 8B/)	.	.	.	.
16D#/Jk	.	.	.	.	.
8.GG#/L	16r	.	4g#/	-szy	]
.	([16g#KL [>16d#/	.	.	.	.
.	8g#]J 8d#] 8B/)	.	.	.	.
16D#/Jk	.	.	.	.	.
8.BB/L	16r	.	4r	.	.
.	([16g#KL [>16d#/	.	.	.	.
.	8g#]J 8d#] 8B/)	.	.	.	.
16D#/Jk	.	.	.	.	.
!	!	!	!	!	!LO:HP:a
8.BB/L	16r	.	8g#/	Nad	<
.	([16g#KL [>16d#/	.	.	.	.
.	8g#]J 8d#] 8B/)	.	8g#/	fa-	.
16D#/Jk	.	.	.	.	.
=52	=52	=52	=52	=52	=52
8.AA#\L	16r	.	(4dd#\	-la-	.
.	([16dd#KL [>16g#/	.	.	.	.
.	8dd#]J 8g#] 8d#/)	.	.	.	.
16G#\Jk	.	.	.	.	.
8.AA#\L	16r	.	2cc#\)	.	.
.	([16cc#KL [>16g#/	.	.	.	.
.	8cc#]J 8g#] 8c#/)	.	.	.	.
16G#\Jk	.	.	.	.	.
8.AA#\L	16r	.	.	.	.
.	([16cc#KL [>16g#/	.	.	.	[
.	8cc#]J 8g#] 8c#/)	.	.	.	.
16G#\Jk	.	.	.	.	.
8.AA#\L	16r	.	4cc#\	-mi	.
.	([16cc#KL [>16g#/	.	.	.	.
.	8cc#]J 8g#] 8c#/)	.	.	.	.
16G#\Jk	.	.	.	.	.
=53	=53	=53	=53	=53	=53
8.D#\L	16r	.	4d#/	ga-	.
.	([>16d#/KL	.	.	.	.
.	8d#]J 8c#/)	>	.	.	.
16F##X\Jk	.	.	.	.	.
8.D#\L	16r	.	4e#X/	-ik	.
.	([>16e#X/KL	.	.	.	.
.	8e#]J 8c#/)	.	.	.	.
16G#\Jk	.	.	.	.	.
!	!	!	!	!	!LO:HP:a
8.D#\L	16r	.	4.f##X/	li-	>
.	([16f##XKL [>16d#/	.	.	.	.
.	8f##]J 8d#] 8c#/)	.	.	.	.
16A#\Jk	.	.	.	.	.
8.D#\L	16r	.	.	.	.
.	([16f##KL [>16d#/	.	.	.	.
.	8f##]J 8d#] 8c#/)	.	8g#/	-ściem	]
16A#\Jk	.	]	.	.	.
!!LO:LB:g=original
=54	=54	=54	=54	=54	=54
!	!	!	!LO:N:vis=2	!	!
8.E\L	16r	pp	2.g#/	drży	.
.	([16cc#KL [>16g#/	.	.	.	.
.	8cc#]J 8g#] 8c#/)	.	.	.	.
16G#\Jk	.	.	.	.	.
8.E\L	16r	.	.	.	.
.	(<[16gg#KL [>16cc#\	.	.	.	.
.	8gg#]J 8cc#] 8g#\)	.	.	.	.
16G#\Jk	.	.	.	.	.
8.E\L	16r	.	.	.	.
.	([16cc#KL [>16g#/	.	.	.	.
.	8cc#]J 8g#] 8c#/)	.	.	.	.
16G#\Jk	.	.	.	.	.
8.E\L	16r	.	4r	.	.
.	(<[16gg#KL [>16cc#\	.	.	.	.
.	8gg#]J 8cc#] 8g#\)	.	.	.	.
16G#\Jk	.	.	.	.	.
=55	=55	=55	=55	=55	=55
!	!	!	!	!	!LO:DY:a:rj
8.E\L	16r	<	[>2.a#/	li-	pp
!	!	!	!	!	!LO:HP:a
.	([16cc#KL [16g#/	.	.	.	<
.	8cc#]J 8g#] 8c#/)	.	.	.	.
16G#\Jk	.	.	.	.	.
8.E\L	16r	.	.	.	.
.	(<[16gg#KL [16cc#\	.	.	.	.
.	8gg#]J 8cc#] 8g#\)	.	.	.	.
16G#\Jk	.	.	.	.	.
8.D#\L	16r	[	.	.	.
.	([16cc#KL [>16g#/	>	.	.	.
.	8cc#]J 8g#] 8d#/)	.	.	.	[
16A#\Jk	.	.	.	.	.
!	!	!	!	!	!LO:HP:a
8.D#\L	16r	.	8a#/]	.	>
.	([16f##XKL 16d#/	.	.	.	.
.	8f##]J 8d# 8c#/)	.	8g#/	-ściem	.
16A#\Jk	.	]]	.	.	]]
=56	=56	=56	=56	=56	=56
8.GG#/L	16r	pp	2.g#/	drży!	.
.	([16g#KL [>16d#/	.	.	.	.
.	8g#]J 8d#] 8B/)	.	.	.	.
16D#/Jk	.	.	.	.	.
!LO:TX:a:i:t=perdendosi	!	!	!	!	!
8.GG#/L	16r	.	.	.	.
.	(<[16dd#KL [16b\	.	.	.	.
.	8dd#]J 8b] 8g#\)	.	.	.	.
16D#/Jk	.	.	.	.	.
8.GG#/L	16r	.	.	.	.
.	([16bKL [16g#/	.	.	.	.
.	8b]J 8g#] 8d#/)	.	.	.	.
16D#/Jk	.	.	.	.	.
8.GG#/L	16r	.	4r	.	.
.	([16g#KL [>16d#/	.	.	.	.
.	8g#]J 8d#] 8B/)	.	.	.	.
16D#/Jk	.	.	.	.	.
!!LO:LB:g=original
=57	=57	=57	=57	=57	=57
8.GG#/L	16r	.	1r	.	.
.	([16d#KL [16B/	.	.	.	.
.	8d#]J 8B] 8G#/)	.	.	.	.
16D#/Jk	.	.	.	.	.
8.GG#/L	16r	.	.	.	.
.	([16bKL [16g#/	.	.	.	.
.	8b]J 8g#] 8d#/)	.	.	.	.
16D#/Jk	.	.	.	.	.
8.GG#/L	16r	.	.	.	.
.	([16g#KL [>16d#/	.	.	.	.
.	8g#]J 8d#] 8B/)	.	.	.	.
16D#/Jk	.	.	.	.	.
8.GG#/L	16r	.	.	.	.
.	([16d#KL [16B/	.	.	.	.
.	8d#]J 8B] 8G#/)	.	.	.	.
16D#/Jk	.	.	.	.	.
=58	=58	=58	=58	=58	=58
8.GG#/L	16r	.	1r	.	.
.	([16BKL [>16G#/	.	.	.	.
.	8B]J 8G#] 8D#/)	.	.	.	.
16D#/Jk	.	.	.	.	.
8.GG#/L	16r	.	.	.	.
.	([16g#KL [>16d#/	.	.	.	.
.	8g#]J 8d#] 8B/)	.	.	.	.
16D#/Jk	.	.	.	.	.
8.GG#/L	16r	.	.	.	.
.	([16d#KL [>16B/	.	.	.	.
.	8d#]J 8B] 8G#/)	.	.	.	.
16D#/Jk	.	.	.	.	.
8.GG#/L	16r	.	.	.	.
.	([16BKL [>16G#/	.	.	.	.
.	8B_J 8G#_ [8D#/)	.	.	.	.
([>16GG#/Jk	.	.	.	.	.
=59	=59	=59	=59	=59	=59
1GG#] 1GGG#)	1B] 1G#] 1D#]	.	1r	.	.
==	==	==	==	==	==
*-	*-	*-	*-	*-	*-
!!!system-decoration: <s1>{(s2,s3)}
!!!RDF**kern: > = above
!!!RDF**kern: < = below
!!!ENC: Berenika Jozajtis
!!!END: 2022-02-16
!!!ENC: Andrzej Kubiczek
!!!END: 2022-02-20
